X: 1
T: Con Cassidy's
M: 4/4
L: 1/8
R: barndance
K: Gmaj
|:dc|BGBc d2dB|dgBc d2cB|A2AB cBce|(3aba (3gfe d2dc|
BGBc d2dB|dgBc d2cB|A2AB ceag|fdcA G2:|
ga|ba g/a/b a2gf|gdBc d2cB|A2AB cBce|(3aba (3gfe d2ga|
bagb a2gf|gdBc d2cB|A2AB ceag|fdcA G2ga|
ba g/a/b a2gf|gdBc d2cB|A2AB cBce|(3aba (3gfe d2dc|
BGBc d2dB|dgBc d2cB|A2AB ceag|fdcA G2||
